src/assets/metronic/worbby/global/img/social-pin.svg

<?xml version="1.0" encoding="UTF-8"?>
<svg width="40px" height="40px" viewBox="0 0 40 40" version="1.1" xmlns="http://www.w3.org/2000/svg" xmlns:xlink="http://www.w3.org/1999/xlink">
    <!-- Generator: Sketch 41.2 (35397) - http://www.bohemiancoding.com/sketch -->
    <title>social-pin</title>
    <desc>Created with Sketch.</desc>
    <defs>
        <path d="M0,20 C0,8.954305 8.95187636,0 20,0 L20,0 C31.045695,0 40,8.95187636 40,20 L40,20 C40,31.045695 31.0481236,40 20,40 L20,40 C8.954305,40 0,31.0481236 0,20 L0,20 Z" id="path-1"></path>
        <mask id="mask-2" maskContentUnits="userSpaceOnUse" maskUnits="objectBoundingBox" x="0" y="0" width="40" height="40" fill="white">
            <use xlink:href="#path-1"></use>
        </mask>
    </defs>
    <g id="Desktop" stroke="none" stroke-width="1" fill="none" fill-rule="evenodd">
        <g id="Desktop-Needor-Worbbior-Profile" transform="translate(-1131.000000, -1013.000000)">
            <g id="social-pin" transform="translate(1131.000000, 1013.000000)">
                <path d="M10,20 C10,24.0945437 12.4635466,27.6128881 15.9877705,29.1592192 C15.9583725,28.4607244 15.9818909,27.6222954 16.1606303,26.8626529 C16.3534807,26.05127 17.4470837,21.4134525 17.4470837,21.4134525 C17.4470837,21.4134525 17.1272342,20.7749294 17.1272342,19.8318438 C17.1272342,18.3490122 17.9868297,17.2424741 19.0557385,17.2424741 C19.9658984,17.2424741 20.4056914,17.925682 20.4056914,18.7441204 C20.4056914,19.658984 19.8224365,21.0265757 19.5225776,22.2930386 C19.2721072,23.3537159 20.0540922,24.2180151 21.1006585,24.2180151 C22.9950611,24.2180151 24.2709313,21.7862183 24.2709313,18.9016933 C24.2709313,16.7109595 22.7951552,15.070555 20.1105362,15.070555 C17.0766698,15.070555 15.1869708,17.3330198 15.1869708,19.8588899 C15.1869708,20.7302446 15.4444967,21.3452493 15.8454845,21.8203198 C16.0312794,22.0390405 16.0571496,22.1272342 15.9901223,22.3788805 C15.9430856,22.5611477 15.8325494,23.0056444 15.7866886,23.1808561 C15.7196613,23.4336783 15.5150517,23.5242239 15.2857479,23.4313264 C13.8887582,22.8598307 13.238476,21.3299624 13.238476,19.6107714 C13.238476,16.7697554 15.6326435,13.3631232 20.3845249,13.3631232 C24.2027281,13.3631232 26.7156632,16.1265287 26.7156632,19.0921919 C26.7156632,23.0150517 24.5343368,25.9454374 21.3193791,25.9454374 C20.2398871,25.9454374 19.2250706,25.3621825 18.8769991,24.6989652 C18.8769991,24.6989652 18.296096,27.002587 18.1726246,27.4482596 C17.9621355,28.2184854 17.5458608,28.9887112 17.1672154,29.5896049 C18.0656162,29.8553622 19.0157573,30 20.0011759,30 C25.5232832,30 30,25.5221072 30,20 C30,14.4767168 25.5232832,10 20.0011759,10 C14.4778928,10 10,14.4767168 10,20 Z" id="Shape" fill="#BD081C"></path>
                <use id="Rectangle-4-Copy-4" stroke="#1E2225" mask="url(#mask-2)" stroke-width="2" xlink:href="#path-1"></use>
            </g>
        </g>
    </g>
</svg>

<svg xmlns="http://www.w3.org/2000/svg" width="40" height="40" xmlns:xlink="http://www.w3.org/1999/xlink"><defs><path id="a" d="M0 20C0 8.9543 8.952 0 20 0c11.0457 0 20 8.952 20 20 0 11.0457-8.952 20-20 20C8.9543 40 0 31.048 0 20z"/><mask id="b" width="40" height="40" x="0" y="0" fill="#fff"><use xlink:href="#a"/></mask></defs><g fill="none" fill-rule="evenodd"><path fill="#BD081C" d="M10 20c0 4.0945 2.4635 7.613 5.9878 9.1592-.0294-.6985-.006-1.537.1728-2.2965.193-.8114 1.2865-5.4492 1.2865-5.4492s-.3198-.6386-.3198-1.5817c0-1.4828.8596-2.5893 1.9285-2.5893.9102 0 1.35.6832 1.35 1.5016 0 .915-.5833 2.2826-.883 3.549-.2506 1.0607.5314 1.925 1.578 1.925 1.8944 0 3.1702-2.4318 3.1702-5.3163 0-2.1907-1.4758-3.831-4.1605-3.831-3.0338 0-4.9235 2.2623-4.9235 4.7882 0 .8712.2575 1.4862.6585 1.9613.1858.2187.2116.307.1446.5586-.047.182-.1575.6266-.2033.802-.067.2527-.2716.3432-.501.2503-1.397-.5715-2.0472-2.1013-2.0472-3.8205 0-2.841 2.394-6.2477 7.146-6.2477 3.8182 0 6.3312 2.7635 6.3312 5.7292 0 3.923-2.1814 6.8532-5.3963 6.8532-1.0795 0-2.0943-.5832-2.4424-1.2464 0 0-.581 2.3036-.7044 2.7493-.2105.7702-.6267 1.5404-1.0054 2.1413.8984.2658 1.8486.4104 2.834.4104C25.5232 30 30 25.522 30 20c0-5.5233-4.4767-10-9.9988-10C14.478 10 10 14.4767 10 20z"/><use stroke="#1E2225" stroke-width="2" mask="url(#b)" xlink:href="#a"/></g></svg>
